X: 20303
T: MISS SKEEN'S STRATHSPEY
C: Copyright.--P. Virtue.
%R: strathspey
B: W. Hamilton "Universal Tune-Book" Vol. 2 Glasgow 1846 p.30 #3
S: http://s3-eu-west-1.amazonaws.com/itma.dl.printmaterial/book_pdfs/hamiltonvol2web.pdf
Z: 2016 John Chambers <jc:trillian.mit.edu>
M: C
L: 1/16
K: A
% - - - - - - - - - - - - - - - - - - - - - - - - -
E2 |\
(EA3) (EA3) F3A E3c | d3BcA3 FB3B2c2 |\
F3A E3E A2c2e2d2 | c3eB3e c2A2A2 :|\
c2 |\
d3(fc3B) A3BA3c | d3BcA3 FB3B3c |
d3(fc2B2) A2c2e2d2 | ce2B3d cA3A2g2 |\
(a3e)(f3d) e3cAc3 | d3BcA3 FB3Bc3 |\
ABcd (e3c) (f3d)e3d | c3eB3e c2A2A2 |]
% - - - - - - - - - - - - - - - - - - - - - - - - -
